packages/match-logos/mono/svg/dr-on-demand.svg

<svg fill="none" height="38" viewBox="0 0 161 38" width="161" xmlns="http://www.w3.org/2000/svg"><path clip-rule="evenodd" d="m95.8613 17.2267c-2.432 0-4.1546 1.7226-4.3573 4.4586h8.512c-.1013-3.04-1.7227-4.4586-4.1547-4.4586zm-82.992 1.1146c1.1375.0023 2.2293.4483 3.043 1.2431.8138.7948 1.2853 1.8758 1.3144 3.0129-.008 1.1263-.4589 2.2042-1.2554 3.0007-.7964.7964-1.8743 1.2474-3.0006 1.2553-1.1322-.0197-2.2139-.4714-3.02397-1.2626-.81003-.7912-1.28703-1.862-1.3334-2.9934-.00541-.5604.10098-1.1162.31294-1.6351.21197-.5188.52526-.9901.92155-1.3864.39628-.3963.86758-.7096 1.38638-.9215.5189-.212 1.0747-.3184 1.6351-.313zm37.8987-1.1146c-2.6347 0-4.7627 2.0266-4.7627 5.2693v.2027c0 3.1413 2.0267 5.2693 4.7627 5.2693s4.7627-2.0267 4.7627-5.2693v-.2027c0-3.344-2.128-5.2693-4.7627-5.2693zm103.563 0c-2.736 0-4.662 1.9253-4.662 5.2693v.2027c0 3.4453 1.926 5.168 4.459 5.168s4.661-1.824 4.661-5.2694v-.2026c0-3.344-1.824-5.168-4.458-5.168zm-72.1497 0c-2.736 0-4.6613 1.9253-4.6613 5.2693v.2027c0 3.4453 1.9253 5.168 4.4587 5.168 2.5333 0 4.6613-1.824 4.6613-5.2694v-.2026c.1013-3.344-1.824-5.168-4.4587-5.168zm49.7547 5.3706h-2.533c-2.635 0-4.662.5067-4.662 2.736 0 1.6214 1.014 2.5334 3.04 2.5334 2.331 0 4.155-1.3174 4.155-3.1414zm-102.448 0h-1.824v2.2294h-2.2293v1.824h2.2293v2.128h1.824v-2.128h2.2293v-1.824h-2.2293zm-10.336-13.4773h-1.9253v9.0187c-1.199-1.0955-2.7745-1.6859-4.398-1.6481-1.6236.0378-3.16998.7007-4.3167 1.8507-.57672.5593-1.03524 1.2286-1.34836 1.9684s-.47447 1.535-.47447 2.3383.16135 1.5985.47447 2.3383.77164 1.4091 1.34836 1.9684c1.15993 1.136 2.7135 1.7807 4.337 1.7995 1.6235.0189 3.1916-.5894 4.3777-1.6982v1.7227h1.9253zm3.7493 7.1947h-1.9253v12.464h1.9253v-6.1814c.0261-1.1463.4988-2.2371 1.3174-3.04.8125-.7916 1.9057-1.2289 3.04-1.216v-1.9253c-1.6181.0022-3.1752.6178-4.3574 1.7227zm118.9657-.2027c2.634 0 4.458 1.4187 4.458 4.9653v7.7014h-1.317v-7.7014c0-2.6346-1.216-3.8506-3.445-3.8506-.537-.0305-1.074.0493-1.578.2345-.505.1851-.966.4718-1.355.8421s-.699.8166-.909 1.3111c-.21.4946-.317 1.0269-.313 1.5643v7.4986h-1.317v-12.464h1.317v2.432c.446-.785 1.095-1.435 1.88-1.8809.785-.446 1.676-.6714 2.579-.6524zm-77.2163 0c2.6346 0 4.4586 1.4187 4.4586 4.9653v7.7014h-1.3173v-7.7014c0-2.6346-1.216-3.8506-3.4453-3.8506-.5365-.0305-1.0735.0493-1.578.2345-.5044.1851-.9655.4718-1.3549.8421-.3893.3703-.6986.8166-.9087 1.3111-.2102.4946-.3167 1.0269-.3131 1.5643v7.4986h-1.3173v-12.464h1.3173v2.432c.4457-.785 1.0954-1.435 1.8803-1.8809.7849-.446 1.6758-.6714 2.5784-.6524zm44.1813 0c.863-.0789 1.725.1536 2.432.6554.706.5018 1.209 1.2399 1.419 2.0806.385-.8489 1.016-1.563 1.81-2.0506.795-.4876 1.717-.7263 2.648-.6854 2.432 0 4.155 1.3173 4.155 4.864v7.8027h-1.317v-7.904c0-2.6347-1.115-3.648-3.142-3.648-1.049.0178-2.056.4136-2.837 1.1146-.375.3682-.668.8111-.86 1.3-.192.4888-.279 1.0127-.255 1.5374v7.6h-1.317v-7.904c0-2.6347-1.115-3.648-3.141-3.648-1.049.0178-2.057.4136-2.838 1.1146-.716.771-1.115 1.7847-1.114 2.8374v7.6h-1.318v-12.464h1.318v2.3306c.464-.7459 1.104-1.3668 1.863-1.8084.76-.4416 1.616-.6905 2.494-.7249zm-12.9707 0c3.04 0 5.4717 1.9253 5.4717 6.08v.4053h-9.9303c0 3.344 1.6213 5.2694 4.6613 5.2694 2.128 0 3.5467-.8107 3.952-2.6347h1.216c-.507 2.3307-2.5333 3.648-5.168 3.648-3.648 0-5.9787-2.5333-5.9787-6.2827v-.2026c0-3.648 2.432-6.2827 5.776-6.2827zm-7.904-6.89067v19.55737h-1.3173v-2.8374c-.4339.8985-1.1092 1.6586-1.9502 2.1955-.8411.5368-1.8148.8292-2.8125.8445-3.1413 0-5.6746-2.3306-5.6746-6.2826v-.2027c0-3.8507 2.5333-6.384 5.8773-6.384.9671-.0239 1.9191.2435 2.7323.7675.8132.5241 1.45 1.2805 1.8277 2.1712v-9.82937zm72.1497-.10133v19.6587h-1.318v-2.8374c-.434.8985-1.109 1.6586-1.95 2.1955-.841.5368-1.815.8292-2.812.8445-3.142 0-5.675-2.3306-5.675-6.2826v-.2027c0-3.8507 2.533-6.384 5.877-6.384.967-.0239 1.919.2435 2.733.7675.813.5241 1.45 1.2805 1.827 2.1712v-9.9307zm-31.312 6.992c2.634 0 4.357 1.216 4.357 4.3573v8.208h-1.317v-1.9253c-.462.696-1.097 1.2588-1.844 1.6322s-1.579.5444-2.412.4958c-2.432 0-4.256-1.216-4.256-3.5467 0-2.8373 2.736-3.7493 5.877-3.7493h2.635v-1.1147c0-2.3306-.912-3.344-3.142-3.344-1.925 0-3.242.8107-3.546 2.6347h-1.216c.304-2.5333 2.533-3.648 4.864-3.648zm-78.027 0c.8182-.0091 1.6297.1488 2.3849.464.7551.3151 1.4381.7809 2.0071 1.369.569.588 1.0122 1.2858 1.3025 2.0509.2902.7651.4214 1.5813.3855 2.3988v.2026c.0449.8197-.0801 1.6398-.3671 2.4089s-.7298 1.4705-1.3007 2.0604c-.5708.5899-1.2574 1.0555-2.0167 1.3675-.7593.3121-1.5748.4639-2.3955.4459-.8158.0005-1.6233-.1633-2.3745-.4814-.7512-.3182-1.4307-.7842-1.998-1.3704-.5673-.5863-1.0108-1.2807-1.3042-2.0419-.2933-.7612-.4305-1.5736-.4033-2.389v-.2026c-.0272-.8154.11-1.6278.4033-2.389.2934-.7612.7369-1.4556 1.3042-2.0419.5673-.5862 1.2468-1.0522 1.998-1.3704.7512-.3181 1.5587-.4819 2.3745-.4814zm-12.464-16.112v38h-38.304v-38z" fill="#1f304c" fill-rule="evenodd"/></svg>

<svg width="161" height="38" viewBox="0 0 161 38" fill="none" xmlns="http://www.w3.org/2000/svg">
<path fill-rule="evenodd" clip-rule="evenodd" d="M95.8613 17.2267C93.4293 17.2267 91.7067 18.9493 91.504 21.6853H100.016C99.9147 18.6453 98.2933 17.2267 95.8613 17.2267ZM12.8693 18.3413C14.0068 18.3436 15.0986 18.7896 15.9123 19.5844C16.7261 20.3792 17.1976 21.4602 17.2267 22.5973C17.2187 23.7236 16.7678 24.8015 15.9713 25.598C15.1749 26.3944 14.097 26.8454 12.9707 26.8533C11.8385 26.8336 10.7568 26.3819 9.94673 25.5907C9.1367 24.7995 8.6597 23.7287 8.61333 22.5973C8.60792 22.0369 8.71431 21.4811 8.92627 20.9622C9.13824 20.4434 9.45153 19.9721 9.84782 19.5758C10.2441 19.1795 10.7154 18.8662 11.2342 18.6543C11.7531 18.4423 12.3089 18.3359 12.8693 18.3413ZM50.768 17.2267C48.1333 17.2267 46.0053 19.2533 46.0053 22.496V22.6987C46.0053 25.84 48.032 27.968 50.768 27.968C53.504 27.968 55.5307 25.9413 55.5307 22.6987V22.496C55.5307 19.152 53.4027 17.2267 50.768 17.2267ZM154.331 17.2267C151.595 17.2267 149.669 19.152 149.669 22.496V22.6987C149.669 26.144 151.595 27.8667 154.128 27.8667C156.661 27.8667 158.789 26.0427 158.789 22.5973V22.3947C158.789 19.0507 156.965 17.2267 154.331 17.2267ZM82.1813 17.2267C79.4453 17.2267 77.52 19.152 77.52 22.496V22.6987C77.52 26.144 79.4453 27.8667 81.9787 27.8667C84.512 27.8667 86.64 26.0427 86.64 22.5973V22.3947C86.7413 19.0507 84.816 17.2267 82.1813 17.2267ZM131.936 22.5973H129.403C126.768 22.5973 124.741 23.104 124.741 25.3333C124.741 26.9547 125.755 27.8667 127.781 27.8667C130.112 27.8667 131.936 26.5493 131.936 24.7253V22.5973ZM29.488 22.5973H27.664V24.8267H25.4347V26.6507H27.664V28.7787H29.488V26.6507H31.7173V24.8267H29.488V22.5973ZM19.152 9.12H17.2267V18.1387C16.0277 17.0432 14.4522 16.4528 12.8287 16.4906C11.2051 16.5284 9.65872 17.1913 8.512 18.3413C7.93528 18.9006 7.47676 19.5699 7.16364 20.3097C6.85052 21.0495 6.68917 21.8447 6.68917 22.648C6.68917 23.4513 6.85052 24.2465 7.16364 24.9863C7.47676 25.7261 7.93528 26.3954 8.512 26.9547C9.67193 28.0907 11.2255 28.7354 12.849 28.7542C14.4725 28.7731 16.0406 28.1648 17.2267 27.056V28.7787H19.152V9.12ZM22.9013 16.3147H20.976V28.7787H22.9013V22.5973C22.9274 21.451 23.4001 20.3602 24.2187 19.5573C25.0312 18.7657 26.1244 18.3284 27.2587 18.3413V16.416C25.6406 16.4182 24.0835 17.0338 22.9013 18.1387V16.3147ZM141.867 16.112C144.501 16.112 146.325 17.5307 146.325 21.0773V28.7787H145.008V21.0773C145.008 18.4427 143.792 17.2267 141.563 17.2267C141.026 17.1962 140.489 17.276 139.985 17.4612C139.48 17.6463 139.019 17.933 138.63 18.3033C138.241 18.6736 137.931 19.1199 137.721 19.6144C137.511 20.109 137.404 20.6413 137.408 21.1787V28.6773H136.091V16.2133H137.408V18.6453C137.854 17.8603 138.503 17.2103 139.288 16.7644C140.073 16.3184 140.964 16.093 141.867 16.112ZM64.6507 16.112C67.2853 16.112 69.1093 17.5307 69.1093 21.0773V28.7787H67.792V21.0773C67.792 18.4427 66.576 17.2267 64.3467 17.2267C63.8102 17.1962 63.2732 17.276 62.7687 17.4612C62.2643 17.6463 61.8032 17.933 61.4138 18.3033C61.0245 18.6736 60.7152 19.1199 60.5051 19.6144C60.2949 20.109 60.1884 20.6413 60.192 21.1787V28.6773H58.8747V16.2133H60.192V18.6453C60.6377 17.8603 61.2874 17.2103 62.0723 16.7644C62.8572 16.3184 63.7481 16.093 64.6507 16.112ZM108.832 16.112C109.695 16.0331 110.557 16.2656 111.264 16.7674C111.97 17.2692 112.473 18.0073 112.683 18.848C113.068 17.9991 113.699 17.285 114.493 16.7974C115.288 16.3098 116.21 16.0711 117.141 16.112C119.573 16.112 121.296 17.4293 121.296 20.976V28.7787H119.979V20.8747C119.979 18.24 118.864 17.2267 116.837 17.2267C115.788 17.2445 114.781 17.6403 114 18.3413C113.625 18.7095 113.332 19.1524 113.14 19.6413C112.948 20.1301 112.861 20.654 112.885 21.1787V28.7787H111.568V20.8747C111.568 18.24 110.453 17.2267 108.427 17.2267C107.378 17.2445 106.37 17.6403 105.589 18.3413C104.873 19.1123 104.474 20.126 104.475 21.1787V28.7787H103.157V16.3147H104.475V18.6453C104.939 17.8994 105.579 17.2785 106.338 16.8369C107.098 16.3953 107.954 16.1464 108.832 16.112ZM95.8613 16.112C98.9013 16.112 101.333 18.0373 101.333 22.192V22.5973H91.4027C91.4027 25.9413 93.024 27.8667 96.064 27.8667C98.192 27.8667 99.6107 27.056 100.016 25.232H101.232C100.725 27.5627 98.6987 28.88 96.064 28.88C92.416 28.88 90.0853 26.3467 90.0853 22.5973V22.3947C90.0853 18.7467 92.5173 16.112 95.8613 16.112ZM87.9573 9.22133V28.7787H86.64V25.9413C86.2061 26.8398 85.5308 27.5999 84.6898 28.1368C83.8487 28.6736 82.875 28.966 81.8773 28.9813C78.736 28.9813 76.2027 26.6507 76.2027 22.6987V22.496C76.2027 18.6453 78.736 16.112 82.08 16.112C83.0471 16.0881 83.9991 16.3555 84.8123 16.8795C85.6255 17.4036 86.2623 18.16 86.64 19.0507V9.22133H87.9573ZM160.107 9.12V28.7787H158.789V25.9413C158.355 26.8398 157.68 27.5999 156.839 28.1368C155.998 28.6736 155.024 28.966 154.027 28.9813C150.885 28.9813 148.352 26.6507 148.352 22.6987V22.496C148.352 18.6453 150.885 16.112 154.229 16.112C155.196 16.0881 156.148 16.3555 156.962 16.8795C157.775 17.4036 158.412 18.16 158.789 19.0507V9.12H160.107ZM128.795 16.112C131.429 16.112 133.152 17.328 133.152 20.4693V28.6773H131.835V26.752C131.373 27.448 130.738 28.0108 129.991 28.3842C129.244 28.7576 128.412 28.9286 127.579 28.88C125.147 28.88 123.323 27.664 123.323 25.3333C123.323 22.496 126.059 21.584 129.2 21.584H131.835V20.4693C131.835 18.1387 130.923 17.1253 128.693 17.1253C126.768 17.1253 125.451 17.936 125.147 19.76H123.931C124.235 17.2267 126.464 16.112 128.795 16.112ZM50.768 16.112C51.5862 16.1029 52.3977 16.2608 53.1529 16.576C53.908 16.8911 54.591 17.3569 55.16 17.945C55.729 18.533 56.1722 19.2308 56.4625 19.9959C56.7527 20.761 56.8839 21.5772 56.848 22.3947V22.5973C56.8929 23.417 56.7679 24.2371 56.4809 25.0062C56.1939 25.7753 55.7511 26.4767 55.1802 27.0666C54.6094 27.6565 53.9228 28.1221 53.1635 28.4341C52.4042 28.7462 51.5887 28.898 50.768 28.88C49.9522 28.8805 49.1447 28.7167 48.3935 28.3986C47.6423 28.0804 46.9628 27.6144 46.3955 27.0282C45.8282 26.4419 45.3847 25.7475 45.0913 24.9863C44.798 24.2251 44.6608 23.4127 44.688 22.5973V22.3947C44.6608 21.5793 44.798 20.7669 45.0913 20.0057C45.3847 19.2445 45.8282 18.5501 46.3955 17.9638C46.9628 17.3776 47.6423 16.9116 48.3935 16.5934C49.1447 16.2753 49.9522 16.1115 50.768 16.112ZM38.304 0V38H0V0H38.304Z" fill="#1F304C"/>
</svg>
